X: 21
T:Iantha
M:C|
L:1/8
O:Playford's Dancing Master, 13th Edition
S:The Complete Country Dance Tunes, Jeremy Barlow, Ed.
K:Bb
A | B2AG d2cd | edcB A2AB | c2BA Bdgd | cBAG G3 :| A |
B2Bc d2de | f2ed c2F2 | BABc d2gf | edcB B2d2 | =B2BB c2d2 | edcB A2g^f
| g2dc B2d2 | edcB A2d2|cBAG G3 :|

%transcribed manually by me

